; generated by PrusaSlicer 2.9.0 on 2025-06-19 at 12:53:44 UTC


;
;
; 

; external perimeters extrusion width = 0.25mm
; perimeters extrusion width = 0.25mm
; infill extrusion width = 0.25mm
; solid infill extrusion width = 0.25mm
; top infill extrusion width = 0.25mm
; first layer extrusion width = 0.30mm

M73 P0 R59
M73 Q0 S59
M201 X1000 Y1000 Z200 E5000 ; sets maximum accelerations, mm/sec^2
M203 X200 Y200 Z12 E120 ; sets maximum feedrates, mm / sec
M204 S1250 T1250 ; sets acceleration (S) and retract acceleration (R), mm/sec^2
M205 X8.00 Y8.00 Z0.40 E4.50 ; sets the jerk limits, mm/sec
M205 S0 T0 ; sets the minimum extruding and travel feed rate, mm/sec

; printing object frame.stl id:0 copy 0
; stop printing object frame.stl id:0 copy 0

;TYPE:Custom
M862.3 P "MK3S" ; printer model check
M862.1 P0.25 ; nozzle diameter check
M115 U3.14.1 ; tell printer latest fw version
G90 ; use absolute coordinates
M83 ; extruder relative mode
M104 S240 ; set extruder temp
M140 S85 ; set bed temp
M190 S85 ; wait for bed temp
M109 S240 ; wait for extruder temp
G28 W ; home all without mesh bed level
G80 X82.4904 Y84.492 W85.0192 H41.016 ; mesh bed levelling
G1 Z0.2 F720
G1 Y-3 F1000 ; go outside print area
G92 E0
G1 X60 E8 F700 ; intro line
G1 X100 E12.5 F700 ; intro line
G92 E0
M221 S95

; Don't change E value below. Excessive value can damage the printer.
M907 E430 ; set extruder motor current
G21 ; set units to millimeters
G90 ; use absolute coordinates
M83 ; use relative distances for extrusion

M900 K0.08 ; Filament gcode LA 1.5
M900 K45 ; Filament gcode LA 1.0




M107
;LAYER_CHANGE
;Z:0.2
;HEIGHT:0.2
G1 E-1 F2100
G1 Z.4 F720
G1 X83.44 Y85.491 F10800
G1 Z.2 F720
G1 E1 F2100
M204 S500
;TYPE:Skirt/Brim
;WIDTH:0.3
G1 F1200
G1 X84.166 Y84.958 E.01925
G1 X84.781 Y84.715 E.01414
G1 X85.5 Y84.621 E.0155
G1 X164.715 Y84.631 E1.69332
G1 X165.674 Y84.875 E.02115
G1 X166.617 Y85.559 E.0249
G1 X167.125 Y86.326 E.01967
G1 X167.316 Y86.883 E.01259
G1 X167.379 Y87.5 E.01326
G1 X167.381 Y122.529 E.74879
G1 X167.263 Y123.292 E.0165
G1 X166.994 Y123.927 E.01474
G1 X166.56 Y124.508 E.0155
G1 X165.834 Y125.042 E.01927
G1 X165.219 Y125.285 E.01414
G1 X164.5 Y125.379 E.0155
G1 X85.5 Y125.379 E1.68872
G1 X84.883 Y125.316 E.01326
G1 X84.1 Y125.01 E.01797
G1 X83.383 Y124.441 E.01957
G1 X82.875 Y123.674 E.01967
G1 X82.684 Y123.117 E.01259
G1 X82.621 Y122.5 E.01326
G1 X82.619 Y87.471 E.74879
G1 X82.737 Y86.708 E.0165
M73 P0 R58
G1 X83.006 Y86.073 E.01474
G1 X83.417 Y85.522 E.01469
M204 S1000
;WIPE_START
G1 F8640
G1 X83.44 Y85.491 E-.00891
G1 X84.166 Y84.958 E-.20796
G1 X84.781 Y84.715 E-.15269
G1 X85.5 Y84.621 E-.16743
G1 X87.505 Y84.621 E-.46301
;WIPE_END
G1 Z.4 F720
; printing object frame.stl id:0 copy 0
G1 X161.546 Y119.55 F10800
G1 Z.2 F720
G1 E1 F2100
M204 S500
;TYPE:Perimeter
;WIDTH:0.299999
G1 F1200
G1 X161.35 Y119.684 E.00508
G1 X161.094 Y119.737 E.00559
G1 X88.906 Y119.737 E1.54311
G1 X88.651 Y119.684 E.00557
G1 X88.451 Y119.548 E.00517
G1 X88.316 Y119.349 E.00514
G1 X88.263 Y119.094 E.00557
G1 X88.263 Y90.906 E.60255
G1 X88.316 Y90.652 E.00555
G1 X88.45 Y90.453 E.00513
G1 X88.65 Y90.316 E.00518
G1 X88.906 Y90.263 E.00559
G1 X161.094 Y90.263 E1.54311
G1 X161.35 Y90.316 E.00559
G1 X161.55 Y90.452 E.00517
G1 X161.684 Y90.651 E.00513
G1 X161.737 Y90.906 E.00557
G1 X161.737 Y119.094 E.60255
G1 X161.684 Y119.349 E.00557
G1 X161.568 Y119.52 E.00442
M204 S1000
G1 X161.568 Y119.52 F10800
G1 X161.362 Y119.369
M204 S500
G1 F1200
G1 X161.161 Y119.474 E.00485
G1 X88.906 Y119.48 E1.54454
G1 X88.753 Y119.448 E.00334
M73 P1 R58
M73 Q1 S59
G1 X88.633 Y119.367 E.00309
G1 X88.526 Y119.161 E.00496
G1 X88.52 Y119.094 E.00144
G1 X88.52 Y90.906 E.60255
G1 X88.552 Y90.753 E.00334
G1 X88.633 Y90.634 E.00308
G1 X88.839 Y90.526 E.00497
G1 X161.094 Y90.52 E1.54454
G1 X161.248 Y90.552 E.00336
G1 X161.367 Y90.634 E.00309
G1 X161.448 Y90.753 E.00308
G1 X161.48 Y90.906 E.00334
G1 X161.48 Y119.094 E.60255
G1 X161.448 Y119.247 E.00334
G1 X161.385 Y119.341 E.00242
M204 S1000
G1 X161.385 Y119.341 F10800
G1 X161.181 Y119.187
M204 S500
;TYPE:External perimeter
G1 F1200
G1 X161.094 Y119.223 E.00201
G1 X88.906 Y119.223 E1.54311
G1 X88.815 Y119.185 E.00211
G1 X88.777 Y119.094 E.00211
G1 X88.777 Y90.906 E.60255
G1 X88.815 Y90.815 E.00211
G1 X88.906 Y90.777 E.00211
G1 X161.094 Y90.777 E1.54311
G1 X161.185 Y90.815 E.00211
G1 X161.223 Y90.906 E.00211
G1 X161.223 Y119.094 E.60255
G1 X161.198 Y119.155 E.00141
M204 S1000
;WIPE_START
G1 F8640
G1 X161.181 Y119.187 E-.00837
G1 X161.094 Y119.223 E-.02174
G1 X156.894 Y119.223 E-.96989
;WIPE_END
G1 Z.4 F720
G1 X85.738 Y87.777 F10800
G1 Z.2 F720
G1 E1 F2100
M204 S500
;TYPE:Perimeter
G1 F1200
G1 X85.738 Y87.746 E.00066
G1 X164.254 Y87.753 E1.67837
G1 X164.262 Y122.254 E.7375
G1 X85.746 Y122.254 E1.67837
M73 Q1 S58
G1 X85.738 Y87.815 E.73618
M204 S1000
G1 X85.738 Y87.815 F10800
G1 X85.532 Y87.509
M204 S500
G1 F1200
G1 X85.543 Y87.489 E.00049
G1 X164.477 Y87.496 E1.68731
G1 X164.511 Y87.564 E.00163
G1 X164.519 Y122.399 E.74464
G1 X164.457 Y122.511 E.00274
M73 P2 R58
M73 Q2 S58
G1 X85.565 Y122.511 E1.68641
G1 X85.489 Y122.446 E.00214
G1 X85.481 Y87.601 E.74485
G1 X85.513 Y87.542 E.00143
M204 S1000
G1 X85.513 Y87.542 F10800
G1 X85.375 Y87.265
M204 S500
;TYPE:External perimeter
G1 F1200
G1 X85.377 Y87.262 E.00008
G1 X85.516 Y87.232 E.00304
G1 X164.443 Y87.239 E1.68716
G1 X164.556 Y87.25 E.00243
G1 X164.727 Y87.369 E.00445
G1 X164.768 Y87.563 E.00424
G1 X164.776 Y122.513 E.7471
G1 X164.623 Y122.738 E.00582
M73 P2 R57
G1 X164.484 Y122.768 E.00304
G1 X85.52 Y122.768 E1.68795
G1 X85.321 Y122.679 E.00466
G1 X85.232 Y122.48 E.00466
G1 X85.224 Y87.487 E.74802
G1 X85.353 Y87.296 E.00493
M204 S1000
;WIPE_START
G1 F8640
G1 X85.375 Y87.265 E-.00878
G1 X85.377 Y87.262 E-.00083
G1 X85.516 Y87.232 E-.03283
G1 X89.663 Y87.232 E-.95756
;WIPE_END
G1 Z.4 F720
G1 X163.617 Y87.869 F10800
G1 Z.2 F720
G1 E1 F2100
M204 S500
;TYPE:Solid infill
;WIDTH:0.300584
G1 F1200
G1 X164.023 Y88.274 E.01229
G1 X164.023 Y88.638 E.0078
G1 X163.368 Y87.984 E.01983
G1 X163.004 Y87.984 E.0078
G1 X164.023 Y89.003 E.03087
G1 X164.023 Y89.367 E.0078
G1 X162.64 Y87.984 E.0419
G1 X162.275 Y87.984 E.00782
G1 X164.023 Y89.732 E.05296
G1 X164.023 Y90.096 E.0078
G1 X161.911 Y87.984 E.06399
G1 X161.546 Y87.984 E.00782
G1 X164.023 Y90.461 E.07505
G1 X164.023 Y90.825 E.0078
G1 X161.182 Y87.984 E.08608
G1 X160.818 Y87.984 E.0078
G1 X164.023 Y91.19 E.09712
G1 X164.023 Y91.554 E.0078
G1 X160.453 Y87.984 E.10817
G1 X160.089 Y87.984 E.0078
G1 X164.024 Y91.919 E.11923
G1 X164.024 Y92.283 E.0078
G1 X159.724 Y87.984 E.13027
G1 X159.36 Y87.984 E.0078
G1 X164.024 Y92.648 E.14132
G1 X164.024 Y93.012 E.0078
G1 X161.968 Y90.957 E.06228
G1 X161.968 Y91.321 E.0078
G1 X164.024 Y93.377 E.0623
G1 X164.024 Y93.741 E.0078
G1 X161.968 Y91.685 E.0623
G1 X161.968 Y92.05 E.00782
G1 X164.024 Y94.106 E.0623
G1 X164.024 Y94.47 E.0078
G1 X161.968 Y92.414 E.0623
G1 X161.968 Y92.779 E.00782
G1 X164.024 Y94.835 E.0623
G1 X164.024 Y95.199 E.0078
G1 X161.968 Y93.143 E.0623
G1 X161.968 Y93.507 E.0078
G1 X164.024 Y95.564 E.06231
G1 X164.025 Y95.928 E.0078
G1 X161.968 Y93.872 E.06231
G1 X161.968 Y94.236 E.0078
G1 X164.025 Y96.293 E.06233
G1 X164.025 Y96.657 E.0078
G1 X161.968 Y94.601 E.06231
G1 X161.968 Y94.965 E.0078
G1 X164.025 Y97.022 E.06233
G1 X164.025 Y97.386 E.0078
G1 X161.968 Y95.329 E.06233
G1 X161.968 Y95.694 E.00782
G1 X164.025 Y97.75 E.06231
G1 X164.025 Y98.115 E.00782
G1 X161.968 Y96.058 E.06233
G1 X161.968 Y96.423 E.00782
G1 X164.025 Y98.479 E.06231
G1 X164.025 Y98.844 E.00782
G1 X161.968 Y96.787 E.06233
G1 X161.968 Y97.151 E.0078
G1 X164.025 Y99.208 E.06233
G1 X164.025 Y99.573 E.00782
G1 X161.968 Y97.516 E.06233
G1 X161.968 Y97.88 E.0078
G1 X164.025 Y99.937 E.06233
G1 X164.026 Y100.302 E.00782
G1 X161.968 Y98.244 E.06236
G1 X161.968 Y98.609 E.00782
G1 X164.026 Y100.666 E.06234
G1 X164.026 Y101.031 E.00782
G1 X161.968 Y98.973 E.06236
G1 X161.968 Y99.338 E.00782
G1 X164.026 Y101.395 E.06234
G1 X164.026 Y101.76 E.00782
G1 X161.968 Y99.702 E.06236
G1 X161.968 Y100.066 E.0078
G1 X164.026 Y102.124 E.06236
G1 X164.026 Y102.489 E.00782
G1 X161.968 Y100.431 E.06236
G1 X161.968 Y100.795 E.0078
G1 X164.026 Y102.853 E.06236
G1 X164.026 Y103.218 E.00782
G1 X161.968 Y101.16 E.06236
G1 X161.968 Y101.524 E.0078
G1 X164.026 Y103.582 E.06236
G1 X164.026 Y103.947 E.00782
G1 X161.968 Y101.888 E.06237
G1 X161.968 Y102.253 E.00782
G1 X164.027 Y104.311 E.06237
G1 X164.027 Y104.676 E.00782
G1 X161.968 Y102.617 E.06239
G1 X161.968 Y102.982 E.00782
G1 X164.027 Y105.04 E.06237
G1 X164.027 Y105.405 E.00782
G1 X161.968 Y103.346 E.06239
G1 X161.968 Y103.71 E.0078
G1 X164.027 Y105.769 E.06239
G1 X164.027 Y106.134 E.00782
G1 X161.968 Y104.075 E.06239
G1 X161.968 Y104.439 E.0078
G1 X164.027 Y106.498 E.06239
G1 X164.027 Y106.863 E.00782
G1 X161.968 Y104.804 E.06239
G1 X161.968 Y105.168 E.0078
G1 X164.027 Y107.227 E.06239
G1 X164.027 Y107.591 E.0078
G1 X161.968 Y105.532 E.06239
G1 X161.968 Y105.897 E.00782
G1 X164.027 Y107.956 E.06239
G1 X164.028 Y108.32 E.0078
G1 X161.968 Y106.261 E.0624
G1 X161.968 Y106.625 E.0078
G1 X164.028 Y108.685 E.06242
G1 X164.028 Y109.049 E.0078
G1 X161.968 Y106.99 E.0624
G1 X161.968 Y107.354 E.0078
G1 X164.028 Y109.414 E.06242
G1 X164.028 Y109.778 E.0078
G1 X161.968 Y107.719 E.0624
G1 X161.968 Y108.083 E.0078
G1 X164.028 Y110.143 E.06242
G1 X164.028 Y110.507 E.0078
G1 X161.968 Y108.447 E.06242
G1 X161.968 Y108.812 E.00782
G1 X164.028 Y110.872 E.06242
G1 X164.028 Y111.236 E.0078
G1 X161.968 Y109.176 E.06242
G1 X161.968 Y109.541 E.00782
G1 X164.028 Y111.601 E.06242
G1 X164.028 Y111.965 E.0078
G1 X161.968 Y109.905 E.06242
G1 X161.968 Y110.269 E.0078
G1 X164.028 Y112.33 E.06243
G1 X164.029 Y112.694 E.0078
G1 X161.968 Y110.634 E.06243
G1 X161.968 Y110.998 E.0078
G1 X164.029 Y113.059 E.06245
G1 X164.029 Y113.423 E.0078
G1 X161.968 Y111.363 E.06243
G1 X161.968 Y111.727 E.0078
G1 X164.029 Y113.788 E.06245
G1 X164.029 Y114.152 E.0078
G1 X161.968 Y112.091 E.06245
G1 X161.968 Y112.456 E.00782
G1 X164.029 Y114.517 E.06245
G1 X164.029 Y114.881 E.0078
G1 X161.968 Y112.82 E.06245
G1 X161.968 Y113.185 E.00782
G1 X164.029 Y115.246 E.06245
G1 X164.029 Y115.61 E.0078
G1 X161.968 Y113.549 E.06245
G1 X161.968 Y113.913 E.0078
G1 X164.029 Y115.975 E.06246
G1 X164.029 Y116.339 E.0078
G1 X161.968 Y114.278 E.06245
G1 X161.968 Y114.642 E.0078
G1 X164.03 Y116.703 E.06246
G1 X164.03 Y117.068 E.00782
G1 X161.968 Y115.006 E.06248
G1 X161.968 Y115.371 E.00782
G1 X164.03 Y117.432 E.06246
G1 X164.03 Y117.797 E.00782
G1 X161.968 Y115.735 E.06248
G1 X161.968 Y116.1 E.00782
G1 X164.03 Y118.161 E.06246
G1 X164.03 Y118.526 E.00782
G1 X161.968 Y116.464 E.06248
G1 X161.968 Y116.828 E.0078
G1 X164.03 Y118.89 E.06248
G1 X164.03 Y119.255 E.00782
G1 X161.968 Y117.193 E.06248
G1 X161.968 Y117.557 E.0078
G1 X164.03 Y119.619 E.06248
G1 X164.03 Y119.984 E.00782
G1 X161.968 Y117.922 E.06248
G1 X161.968 Y118.286 E.0078
G1 X164.03 Y120.348 E.06248
G1 X164.031 Y120.713 E.00782
G1 X161.968 Y118.65 E.06251
G1 X161.968 Y119.015 E.00782
G1 X164.031 Y121.077 E.06249
G1 X164.031 Y121.442 E.00782
G1 X161.928 Y119.339 E.06372
G1 X161.896 Y119.444 E.00235
M73 P3 R57
G1 X161.804 Y119.58 E.00352
G1 X164.031 Y121.806 E.06746
G1 X164.031 Y122.022 E.00463
M73 Q3 S58
G1 X163.883 Y122.022 E.00317
G1 X161.63 Y119.77 E.06825
G1 X161.404 Y119.908 E.00567
G1 X163.518 Y122.022 E.06405
G1 X163.154 Y122.022 E.0078
G1 X161.099 Y119.968 E.06225
G1 X160.735 Y119.968 E.0078
G1 X162.789 Y122.022 E.06223
G1 X162.425 Y122.022 E.0078
G1 X160.371 Y119.968 E.06223
G1 X160.006 Y119.968 E.00782
G1 X162.061 Y122.022 E.06225
G1 X161.696 Y122.022 E.00782
G1 X159.642 Y119.968 E.06223
G1 X159.278 Y119.968 E.0078
G1 X161.332 Y122.022 E.06223
G1 X160.968 Y122.022 E.0078
G1 X158.913 Y119.968 E.06225
G1 X158.549 Y119.968 E.0078
G1 X160.603 Y122.022 E.06223
G1 X160.239 Y122.022 E.0078
G1 X158.184 Y119.968 E.06225
G1 X157.82 Y119.968 E.0078
G1 X159.874 Y122.022 E.06223
G1 X159.51 Y122.022 E.0078
G1 X157.456 Y119.968 E.06223
G1 X157.091 Y119.968 E.00782
G1 X159.146 Y122.022 E.06225
G1 X158.781 Y122.022 E.00782
G1 X156.727 Y119.968 E.06223
G1 X156.362 Y119.968 E.00782
G1 X158.417 Y122.022 E.06225
G1 X158.052 Y122.022 E.00782
G1 X155.998 Y119.968 E.06223
G1 X155.634 Y119.968 E.0078
G1 X157.688 Y122.022 E.06223
G1 X157.324 Y122.022 E.0078
G1 X155.269 Y119.968 E.06225
G1 X154.905 Y119.968 E.0078
G1 X156.959 Y122.022 E.06223
G1 X156.595 Y122.022 E.0078
G1 X154.541 Y119.968 E.06223
G1 X154.176 Y119.968 E.00782
G1 X156.23 Y122.022 E.06223
G1 X155.866 Y122.022 E.0078
G1 X153.812 Y119.968 E.06223
G1 X153.447 Y119.968 E.00782
G1 X155.502 Y122.022 E.06225
G1 X155.137 Y122.022 E.00782
G1 X153.083 Y119.968 E.06223
G1 X152.719 Y119.968 E.0078
G1 X154.773 Y122.022 E.06223
G1 X154.408 Y122.022 E.00782
G1 X152.354 Y119.968 E.06223
G1 X151.99 Y119.968 E.0078
G1 X154.044 Y122.022 E.06223
G1 X153.68 Y122.022 E.0078
G1 X151.625 Y119.968 E.06225
G1 X151.261 Y119.968 E.0078
G1 X153.315 Y122.022 E.06223
G1 X152.951 Y122.022 E.0078
G1 X150.897 Y119.968 E.06223
G1 X150.532 Y119.968 E.00782
G1 X152.586 Y122.022 E.06223
G1 X152.222 Y122.022 E.0078
G1 X150.168 Y119.968 E.06223
G1 X149.803 Y119.968 E.00782
G1 X151.858 Y122.022 E.06225
G1 X151.493 Y122.022 E.00782
G1 X149.439 Y119.968 E.06223
G1 X149.075 Y119.968 E.0078
G1 X151.129 Y122.022 E.06223
G1 X150.765 Y122.022 E.0078
G1 X148.71 Y119.968 E.06225
G1 X148.346 Y119.968 E.0078
G1 X150.4 Y122.022 E.06223
G1 X150.036 Y122.022 E.0078
G1 X147.981 Y119.968 E.06225
G1 X147.617 Y119.968 E.0078
G1 X149.671 Y122.022 E.06223
G1 X149.307 Y122.022 E.0078
G1 X147.253 Y119.968 E.06223
G1 X146.888 Y119.968 E.00782
G1 X148.943 Y122.022 E.06225
G1 X148.578 Y122.022 E.00782
G1 X146.524 Y119.968 E.06223
G1 X146.16 Y119.968 E.0078
G1 X148.214 Y122.022 E.06223
G1 X147.849 Y122.022 E.00782
G1 X145.795 Y119.968 E.06223
G1 X145.431 Y119.968 E.0078
G1 X147.485 Y122.022 E.06223
G1 X147.121 Y122.022 E.0078
G1 X145.066 Y119.968 E.06225
G1 X144.702 Y119.968 E.0078
G1 X146.756 Y122.022 E.06223
G1 X146.392 Y122.022 E.0078
G1 X144.338 Y119.968 E.06223
G1 X143.973 Y119.968 E.00782
G1 X146.027 Y122.022 E.06223
G1 X145.663 Y122.022 E.0078
G1 X143.609 Y119.968 E.06223
G1 X143.244 Y119.968 E.00782
G1 X145.299 Y122.022 E.06225
G1 X144.934 Y122.022 E.00782
G1 X142.88 Y119.968 E.06223
G1 X142.516 Y119.968 E.0078
G1 X144.57 Y122.022 E.06223
G1 X144.205 Y122.022 E.00782
G1 X142.151 Y119.968 E.06223
G1 X141.787 Y119.968 E.0078
G1 X143.841 Y122.022 E.06223
G1 X143.477 Y122.022 E.0078
G1 X141.422 Y119.968 E.06225
G1 X141.058 Y119.968 E.0078
G1 X143.112 Y122.022 E.06223
G1 X142.748 Y122.022 E.0078
G1 X140.694 Y119.968 E.06223
G1 X140.329 Y119.968 E.00782
G1 X142.384 Y122.022 E.06225
G1 X142.019 Y122.022 E.00782
G1 X139.965 Y119.968 E.06223
G1 X139.6 Y119.968 E.00782
M73 Q3 S57
G1 X141.655 Y122.022 E.06225
G1 X141.29 Y122.022 E.00782
G1 X139.236 Y119.968 E.06223
G1 X138.872 Y119.968 E.0078
G1 X140.926 Y122.022 E.06223
G1 X140.562 Y122.022 E.0078
G1 X138.507 Y119.968 E.06225
G1 X138.143 Y119.968 E.0078
G1 X140.197 Y122.022 E.06223
G1 X139.833 Y122.022 E.0078
G1 X137.778 Y119.968 E.06225
G1 X137.414 Y119.968 E.0078
G1 X139.468 Y122.022 E.06223
G1 X139.104 Y122.022 E.0078
G1 X137.05 Y119.968 E.06223
G1 X136.685 Y119.968 E.00782
G1 X138.74 Y122.022 E.06225
G1 X138.375 Y122.022 E.00782
G1 X136.321 Y119.968 E.06223
G1 X135.957 Y119.968 E.0078
G1 X138.011 Y122.022 E.06223
G1 X137.646 Y122.022 E.00782
G1 X135.592 Y119.968 E.06223
G1 X135.228 Y119.968 E.0078
G1 X137.282 Y122.022 E.06223
G1 X136.918 Y122.022 E.0078
G1 X134.863 Y119.968 E.06225
G1 X134.499 Y119.968 E.0078
G1 X136.553 Y122.022 E.06223
G1 X136.189 Y122.022 E.0078
G1 X134.135 Y119.968 E.06223
G1 X133.77 Y119.968 E.00782
G1 X135.824 Y122.022 E.06223
G1 X135.46 Y122.022 E.0078
G1 X133.406 Y119.968 E.06223
G1 X133.041 Y119.968 E.00782
G1 X135.096 Y122.022 E.06225
G1 X134.731 Y122.022 E.00782
G1 X132.677 Y119.968 E.06223
G1 X132.313 Y119.968 E.0078
G1 X134.367 Y122.022 E.06223
G1 X134.003 Y122.022 E.0078
G1 X131.948 Y119.968 E.06225
G1 X131.584 Y119.968 E.0078
