; generated by PrusaSlicer 2.9.0 on 2025-05-29 at 11:43:07 UTC


;
;
; 

; external perimeters extrusion width = 0.25mm
; perimeters extrusion width = 0.25mm
; infill extrusion width = 0.25mm
; solid infill extrusion width = 0.25mm
; top infill extrusion width = 0.25mm
; support material extrusion width = 0.25mm
; first layer extrusion width = 0.30mm

M73 P0 R272
M73 Q0 S273
M201 X1000 Y1000 Z200 E5000 ; sets maximum accelerations, mm/sec^2
M203 X200 Y200 Z12 E120 ; sets maximum feedrates, mm / sec
M204 S1250 T1250 ; sets acceleration (S) and retract acceleration (R), mm/sec^2
M205 X8.00 Y8.00 Z0.40 E4.50 ; sets the jerk limits, mm/sec
M205 S0 T0 ; sets the minimum extruding and travel feed rate, mm/sec

; printing object 16x2-lcd-bezel.stl id:0 copy 0
; stop printing object 16x2-lcd-bezel.stl id:0 copy 0

;TYPE:Custom
M862.3 P "MK3S" ; printer model check
M862.1 P0.25 ; nozzle diameter check
M115 U3.14.1 ; tell printer latest fw version
G90 ; use absolute coordinates
M83 ; extruder relative mode
M104 S240 ; set extruder temp
M140 S85 ; set bed temp
M190 S85 ; wait for bed temp
M109 S240 ; wait for extruder temp
G28 W ; home all without mesh bed level
G80 X79 Y81 W92 H48 ; mesh bed levelling
G1 Z0.2 F720
G1 Y-3 F1000 ; go outside print area
G92 E0
G1 X60 E8 F700 ; intro line
G1 X100 E12.5 F700 ; intro line
G92 E0
M221 S95

; Don't change E value below. Excessive value can damage the printer.
M907 E430 ; set extruder motor current
G21 ; set units to millimeters
G90 ; use absolute coordinates
M83 ; use relative distances for extrusion

M900 K0.08 ; Filament gcode LA 1.5
M900 K45 ; Filament gcode LA 1.0




M107
;LAYER_CHANGE
;Z:0.2
;HEIGHT:0.2
G1 E-1 F2100
G1 Z.4 F720
; printing object 16x2-lcd-bezel.stl id:0 copy 0
G1 X88.348 Y119.15 F10800
G1 Z.2 F720
G1 E1 F2100
M204 S500
;TYPE:Perimeter
;WIDTH:0.299999
G1 F1200
G1 X88.165 Y118.906 E.00652
G1 X88.089 Y118.655 E.00561
G1 X88.079 Y118.521 E.00287
G1 X88.079 Y90.979 E.58874
G1 X88.127 Y90.688 E.0063
M73 Q0 S272
G1 X88.257 Y90.441 E.00597
G1 X88.441 Y90.257 E.00556
G1 X88.688 Y90.127 E.00597
G1 X88.979 Y90.079 E.0063
G1 X161.021 Y90.079 E1.53998
G1 X161.312 Y90.127 E.0063
M73 P0 R271
G1 X161.559 Y90.257 E.00597
G1 X161.743 Y90.441 E.00556
G1 X161.873 Y90.688 E.00597
G1 X161.921 Y90.979 E.0063
G1 X161.921 Y118.521 E.58874
G1 X161.882 Y118.785 E.0057
G1 X161.7 Y119.112 E.008
G1 X161.411 Y119.332 E.00776
G1 X161.157 Y119.411 E.00569
G1 X161.021 Y119.421 E.00292
G1 X88.979 Y119.421 E1.53998
G1 X88.711 Y119.381 E.00579
G1 X88.381 Y119.194 E.00811
G1 X88.37 Y119.18 E.00038
M204 S1000
G1 X88.37 Y119.18 F10800
G1 X88.531 Y118.972
M204 S500
G1 F1200
G1 X88.494 Y118.944 E.00099
G1 X88.364 Y118.71 E.00572
G1 X88.336 Y118.521 E.00408
G1 X88.336 Y90.979 E.58874
G1 X88.411 Y90.678 E.00663
G1 X88.595 Y90.463 E.00605
G1 X88.873 Y90.345 E.00646
G1 X88.979 Y90.336 E.00227
G1 X161.021 Y90.336 E1.53998
G1 X161.322 Y90.411 E.00663
G1 X161.537 Y90.595 E.00605
G1 X161.655 Y90.873 E.00646
G1 X161.664 Y90.979 E.00227
G1 X161.664 Y118.521 E.58874
G1 X161.602 Y118.796 E.00603
G1 X161.448 Y119.002 E.0055
G1 X161.212 Y119.135 E.00579
G1 X161.021 Y119.164 E.00413
G1 X88.979 Y119.164 E1.53998
G1 X88.7 Y119.101 E.00611
G1 X88.561 Y118.994 E.00375
M204 S1000
G1 X88.561 Y118.994 F10800
G1 X88.715 Y118.785
M204 S500
G1 F1200
G1 X88.63 Y118.686 E.00279
G1 X88.593 Y118.521 E.00361
G1 X88.593 Y90.979 E.58874
G1 X88.669 Y90.748 E.0052
G1 X88.854 Y90.614 E.00488
G1 X88.979 Y90.593 E.00271
G1 X161.021 Y90.593 E1.53998
G1 X161.252 Y90.669 E.0052
G1 X161.386 Y90.854 E.00488
G1 X161.407 Y90.979 E.00271
G1 X161.407 Y118.521 E.58874
G1 X161.344 Y118.733 E.00473
G1 X161.189 Y118.869 E.00441
G1 X161.021 Y118.907 E.00368
G1 X88.979 Y118.907 E1.53998
G1 X88.764 Y118.842 E.0048
G1 X88.739 Y118.813 E.00082
M204 S1000
G1 X88.897 Y118.606 F10800
M204 S500
;TYPE:External perimeter
G1 F1200
G1 X88.871 Y118.592 E.00063
G1 X88.85 Y118.521 E.00158
G1 X88.85 Y90.979 E.58874
G1 X88.918 Y90.865 E.00284
G1 X88.979 Y90.85 E.00134
G1 X161.021 Y90.85 E1.53998
G1 X161.135 Y90.918 E.00284
G1 X161.15 Y90.979 E.00134
G1 X161.15 Y118.521 E.58874
G1 X161.093 Y118.628 E.00259
G1 X161.021 Y118.65 E.00161
G1 X88.979 Y118.65 E1.53998
G1 X88.93 Y118.624 E.00119
M204 S1000
;WIPE_START
G1 F8640
G1 X88.897 Y118.606 E-.00868
G1 X88.871 Y118.592 E-.00682
G1 X88.85 Y118.521 E-.0171
G1 X88.85 Y114.331 E-.9674
;WIPE_END
G1 Z.4 F720
G1 X88.614 Y114.331 F10800
G1 X79.921 Y128.079
G1 Z.2 F720
G1 E1 F2100
M204 S500
;TYPE:Perimeter
G1 F1200
G1 X79.921 Y81.921 E.98668
G1 X170.079 Y81.921 E1.92724
G1 X170.079 Y86.854 E.10545
G1 X170.079 Y128.079 E.88123
G1 X79.959 Y128.079 E1.92642
M204 S1000
G1 X79.959 Y128.079 F10800
G1 X79.664 Y128.336
M204 S500
G1 F1200
G1 X79.664 Y81.664 E.99767
G1 X170.336 Y81.664 E1.93822
G1 X170.336 Y86.854 E.11094
M73 Q0 S271
G1 X170.336 Y128.336 E.88673
G1 X79.702 Y128.336 E1.93741
M73 P0 R270
M204 S1000
G1 X79.702 Y128.336 F10800
G1 X79.407 Y128.593
M204 S500
G1 F1200
G1 X79.407 Y81.407 E1.00866
G1 X170.593 Y81.407 E1.94921
G1 X170.593 Y86.854 E.11644
G1 X170.593 Y128.593 E.89222
G1 X79.445 Y128.593 E1.9484
M204 S1000
G1 X79.445 Y128.593 F10800
G1 X79.15 Y128.85
M204 S500
;TYPE:External perimeter
G1 F1200
G1 X79.15 Y81.15 E1.01964
G1 X170.85 Y81.15 E1.9602
G1 X170.85 Y86.854 E.12193
G1 X170.85 Y128.85 E.89772
G1 X79.188 Y128.85 E1.95939
M204 S1000
;WIPE_START
G1 F8640
G1 X79.15 Y128.85 E-.00877
G1 X79.15 Y124.557 E-.99123
;WIPE_END
G1 Z.4 F720
G1 X79.386 Y124.448 F10800
G1 X88.614 Y90.614
G1 X169.963 Y82.558
G1 Z.2 F720
G1 E1 F2100
M204 S500
;TYPE:Solid infill
;WIDTH:0.300556
G1 F1200
G1 X169.442 Y82.037 E.01578
M204 S1000
G1 X169.442 Y82.037 F10800
G1 X169.078 Y82.037
M204 S500
G1 F1200
G1 X169.963 Y82.922 E.02681
M204 S1000
G1 X169.963 Y82.922 F10800
G1 X169.963 Y83.287
M204 S500
G1 F1200
G1 X168.713 Y82.037 E.03787
M204 S1000
G1 X168.713 Y82.037 F10800
G1 X168.349 Y82.037
M204 S500
G1 F1200
G1 X169.963 Y83.651 E.0489
M204 S1000
G1 X169.963 Y83.651 F10800
G1 X169.963 Y84.015
M204 S500
G1 F1200
G1 X167.985 Y82.037 E.05993
M204 S1000
G1 X167.985 Y82.037 F10800
G1 X167.62 Y82.037
M204 S500
G1 F1200
G1 X169.963 Y84.38 E.07098
M204 S1000
G1 X169.963 Y84.38 F10800
G1 X169.963 Y84.744
M204 S500
G1 F1200
G1 X167.256 Y82.037 E.08201
M204 S1000
G1 X166.892 Y82.037 F10800
M204 S500
G1 F1200
G1 X169.963 Y85.108 E.09304
M204 S1000
G1 X169.963 Y85.108 F10800
G1 X169.963 Y85.473
M204 S500
G1 F1200
G1 X166.527 Y82.037 E.1041
M204 S1000
G1 X166.527 Y82.037 F10800
G1 X166.163 Y82.037
M204 S500
G1 F1200
G1 X169.963 Y85.837 E.11512
M204 S1000
G1 X169.963 Y86.201 F10800
M204 S500
G1 F1200
G1 X165.799 Y82.037 E.12615
M204 S1000
G1 X165.799 Y82.037 F10800
G1 X165.434 Y82.037
M204 S500
G1 F1200
G1 X169.963 Y86.566 E.13721
M204 S1000
G1 X169.963 Y86.566 F10800
G1 X169.963 Y86.93
M204 S500
G1 F1200
G1 X165.07 Y82.037 E.14824
M204 S1000
G1 X164.706 Y82.037 F10800
M204 S500
G1 F1200
G1 X169.963 Y87.294 E.15927
M204 S1000
G1 X169.963 Y87.294 F10800
G1 X169.963 Y87.659
M204 S500
G1 F1200
G1 X164.341 Y82.037 E.17032
M204 S1000
G1 X164.341 Y82.037 F10800
G1 X163.977 Y82.037
M204 S500
G1 F1200
G1 X169.963 Y88.023 E.18135
M204 S1000
G1 X169.963 Y88.023 F10800
G1 X169.963 Y88.387
M204 S500
G1 F1200
G1 X163.613 Y82.037 E.19238
M204 S1000
G1 X163.613 Y82.037 F10800
G1 X163.248 Y82.037
M204 S500
G1 F1200
G1 X169.963 Y88.752 E.20344
M204 S1000
G1 X169.963 Y88.752 F10800
G1 X169.963 Y89.116
M204 S500
G1 F1200
G1 X162.884 Y82.037 E.21447
M204 S1000
G1 X162.884 Y82.037 F10800
G1 X162.519 Y82.037
M204 S500
G1 F1200
G1 X169.963 Y89.481 E.22552
M204 S1000
G1 X169.963 Y89.481 F10800
G1 X169.963 Y89.845
M204 S500
G1 F1200
G1 X162.155 Y82.037 E.23655
M204 S1000
G1 X162.155 Y82.037 F10800
G1 X161.791 Y82.037
M204 S500
G1 F1200
G1 X169.963 Y90.209 E.24758
M204 S1000
G1 X169.963 Y90.209 F10800
G1 X169.963 Y90.574
M204 S500
G1 F1200
G1 X161.426 Y82.037 E.25864
M204 S1000
G1 X161.426 Y82.037 F10800
G1 X161.062 Y82.037
M204 S500
G1 F1200
G1 X169.963 Y90.938 E.26966
M204 S1000
G1 X169.963 Y91.302 F10800
M204 S500
G1 F1200
G1 X160.698 Y82.037 E.28069
M204 S1000
G1 X160.698 Y82.037 F10800
G1 X160.333 Y82.037
M204 S500
G1 F1200
G1 X169.963 Y91.667 E.29175
M204 S1000
G1 X169.963 Y91.667 F10800
G1 X169.963 Y92.031
M204 S500
G1 F1200
G1 X159.969 Y82.037 E.30278
M204 S1000
G1 X159.605 Y82.037 F10800
M204 S500
G1 F1200
G1 X169.963 Y92.395 E.31381
M204 S1000
G1 X169.963 Y92.395 F10800
G1 X169.963 Y92.76
M204 S500
G1 F1200
G1 X159.24 Y82.037 E.32486
M204 S1000
G1 X159.24 Y82.037 F10800
G1 X158.876 Y82.037
M204 S500
G1 F1200
G1 X169.963 Y93.124 E.33589
M204 S1000
G1 X169.963 Y93.488 F10800
M204 S500
G1 F1200
G1 X158.512 Y82.037 E.34692
M204 S1000
G1 X158.512 Y82.037 F10800
G1 X158.147 Y82.037
M204 S500
G1 F1200
G1 X169.963 Y93.853 E.35798
M204 S1000
G1 X169.963 Y93.853 F10800
G1 X169.963 Y94.217
M204 S500
G1 F1200
G1 X157.783 Y82.037 E.36901
M204 S1000
G1 X157.419 Y82.037 F10800
M204 S500
G1 F1200
G1 X169.963 Y94.581 E.38003
M204 S1000
G1 X169.963 Y94.581 F10800
G1 X169.963 Y94.946
M204 S500
G1 F1200
G1 X157.054 Y82.037 E.39109
M204 S1000
G1 X157.054 Y82.037 F10800
G1 X156.69 Y82.037
M204 S500
G1 F1200
G1 X169.963 Y95.31 E.40212
M204 S1000
G1 X169.963 Y95.31 F10800
G1 X169.963 Y95.675
M204 S500
G1 F1200
G1 X156.326 Y82.037 E.41316
M204 S1000
G1 X156.326 Y82.037 F10800
G1 X155.961 Y82.037
M204 S500
G1 F1200
G1 X169.963 Y96.039 E.4242
M204 S1000
G1 X169.963 Y96.039 F10800
G1 X169.963 Y96.403
M204 S500
G1 F1200
G1 X155.597 Y82.037 E.43523
M204 S1000
G1 X155.597 Y82.037 F10800
G1 X155.232 Y82.037
M204 S500
G1 F1200
G1 X169.963 Y96.768 E.44629
M204 S1000
G1 X169.963 Y96.768 F10800
M73 Q0 S270
G1 X169.963 Y97.132
M204 S500
G1 F1200
G1 X154.868 Y82.037 E.45732
M204 S1000
G1 X154.504 Y82.037 F10800
M204 S500
G1 F1200
G1 X169.963 Y97.496 E.46835
M204 S1000
G1 X169.963 Y97.496 F10800
M73 P0 R269
G1 X169.963 Y97.861
M204 S500
G1 F1200
G1 X154.139 Y82.037 E.4794
M204 S1000
G1 X154.139 Y82.037 F10800
G1 X153.775 Y82.037
M204 S500
G1 F1200
G1 X169.963 Y98.225 E.49043
M204 S1000
G1 X169.963 Y98.589 F10800
M204 S500
G1 F1200
G1 X161.936 Y90.562 E.24319
M204 S1000
G1 X161.936 Y90.562 F10800
G1 X162.037 Y91.028
M204 S500
G1 F1200
G1 X169.963 Y98.954 E.24013
M204 S1000
G1 X169.963 Y98.954 F10800
G1 X169.963 Y99.318
M204 S500
G1 F1200
G1 X162.037 Y91.392 E.24013
M204 S1000
G1 X162.037 Y91.392 F10800
G1 X162.037 Y91.756
M204 S500
G1 F1200
G1 X169.963 Y99.682 E.24013
M204 S1000
G1 X169.963 Y99.682 F10800
G1 X169.963 Y100.047
M204 S500
G1 F1200
G1 X162.037 Y92.121 E.24013
M204 S1000
G1 X162.037 Y92.121 F10800
G1 X162.037 Y92.485
M204 S500
G1 F1200
G1 X169.963 Y100.411 E.24013
M204 S1000
G1 X169.963 Y100.775 F10800
M204 S500
G1 F1200
G1 X162.037 Y92.849 E.24013
M204 S1000
G1 X162.037 Y92.849 F10800
G1 X162.037 Y93.214
M204 S500
G1 F1200
G1 X169.963 Y101.14 E.24013
M204 S1000
G1 X169.963 Y101.14 F10800
G1 X169.963 Y101.504
M204 S500
G1 F1200
G1 X162.037 Y93.578 E.24013
M204 S1000
G1 X162.037 Y93.942 F10800
M204 S500
G1 F1200
G1 X169.963 Y101.868 E.24013
M204 S1000
G1 X169.963 Y101.868 F10800
G1 X169.963 Y102.233
M204 S500
G1 F1200
G1 X162.037 Y94.307 E.24013
M204 S1000
G1 X162.037 Y94.307 F10800
G1 X162.037 Y94.671
M204 S500
G1 F1200
G1 X169.963 Y102.597 E.24013
M204 S1000
G1 X169.963 Y102.597 F10800
G1 X169.963 Y102.962
M204 S500
G1 F1200
G1 X162.037 Y95.035 E.24014
M204 S1000
G1 X162.037 Y95.035 F10800
G1 X162.037 Y95.4
M204 S500
G1 F1200
G1 X169.963 Y103.326 E.24013
M204 S1000
G1 X169.963 Y103.326 F10800
G1 X169.963 Y103.69
M204 S500
G1 F1200
G1 X162.037 Y95.764 E.24013
M204 S1000
G1 X162.037 Y96.128 F10800
M204 S500
G1 F1200
G1 X169.963 Y104.055 E.24014
M204 S1000
G1 X169.963 Y104.055 F10800
G1 X169.963 Y104.419
M204 S500
G1 F1200
G1 X162.037 Y96.493 E.24013
M204 S1000
G1 X162.037 Y96.493 F10800
G1 X162.037 Y96.857
M204 S500
G1 F1200
G1 X169.963 Y104.783 E.24013
M204 S1000
G1 X169.963 Y104.783 F10800
G1 X169.963 Y105.148
M204 S500
G1 F1200
G1 X162.037 Y97.222 E.24013
M204 S1000
G1 X162.037 Y97.222 F10800
G1 X162.037 Y97.586
M204 S500
G1 F1200
G1 X169.963 Y105.512 E.24013
M204 S1000
G1 X169.963 Y105.876 F10800
M204 S500
G1 F1200
G1 X162.037 Y97.95 E.24013
M204 S1000
G1 X162.037 Y97.95 F10800
G1 X162.037 Y98.315
M204 S500
G1 F1200
G1 X169.963 Y106.241 E.24013
M204 S1000
G1 X169.963 Y106.241 F10800
G1 X169.963 Y106.605
M204 S500
G1 F1200
G1 X162.037 Y98.679 E.24013
M204 S1000
G1 X162.037 Y99.043 F10800
M204 S500
G1 F1200
G1 X169.963 Y106.969 E.24013
M204 S1000
G1 X169.963 Y106.969 F10800
G1 X169.963 Y107.334
M204 S500
G1 F1200
G1 X162.037 Y99.408 E.24013
M204 S1000
G1 X162.037 Y99.408 F10800
G1 X162.037 Y99.772
M204 S500
G1 F1200
G1 X169.963 Y107.698 E.24013
M204 S1000
G1 X169.963 Y107.698 F10800
G1 X169.963 Y108.062
M204 S500
G1 F1200
G1 X162.037 Y100.136 E.24013
M204 S1000
G1 X162.037 Y100.136 F10800
G1 X162.037 Y100.501
M204 S500
G1 F1200
G1 X169.963 Y108.427 E.24013
M204 S1000
G1 X169.963 Y108.427 F10800
G1 X169.963 Y108.791
M204 S500
G1 F1200
G1 X162.037 Y100.865 E.24013
M204 S1000
G1 X162.037 Y101.229 F10800
M204 S500
G1 F1200
G1 X169.963 Y109.156 E.24014
M204 S1000
G1 X169.963 Y109.156 F10800
G1 X169.963 Y109.52
M204 S500
G1 F1200
G1 X162.037 Y101.594 E.24013
M204 S1000
G1 X162.037 Y101.594 F10800
G1 X162.037 Y101.958
M204 S500
G1 F1200
G1 X169.963 Y109.884 E.24013
M204 S1000
G1 X169.963 Y109.884 F10800
G1 X169.963 Y110.249
M204 S500
G1 F1200
G1 X162.037 Y102.322 E.24014
M204 S1000
G1 X162.037 Y102.322 F10800
G1 X162.037 Y102.687
M204 S500
G1 F1200
G1 X169.963 Y110.613 E.24013
M204 S1000
G1 X169.963 Y110.977 F10800
M204 S500
G1 F1200
G1 X162.037 Y103.051 E.24013
M204 S1000
G1 X162.037 Y103.051 F10800
G1 X162.037 Y103.415
M204 S500
G1 F1200
G1 X169.963 Y111.342 E.24014
M204 S1000
G1 X169.963 Y111.342 F10800
G1 X169.963 Y111.706
M204 S500
G1 F1200
G1 X162.037 Y103.78 E.24013
M204 S1000
G1 X162.037 Y103.78 F10800
G1 X162.037 Y104.144
M204 S500
G1 F1200
G1 X169.963 Y112.07 E.24013
M204 S1000
G1 X169.963 Y112.07 F10800
G1 X169.963 Y112.435
M204 S500
G1 F1200
G1 X162.037 Y104.509 E.24013
M204 S1000
G1 X162.037 Y104.509 F10800
G1 X162.037 Y104.873
M204 S500
G1 F1200
G1 X169.963 Y112.799 E.24013
M204 S1000
G1 X169.963 Y113.163 F10800
M204 S500
G1 F1200
G1 X162.037 Y105.237 E.24013
M204 S1000
G1 X162.037 Y105.237 F10800
G1 X162.037 Y105.602
M204 S500
G1 F1200
G1 X169.963 Y113.528 E.24013
M204 S1000
G1 X169.963 Y113.528 F10800
G1 X169.963 Y113.892
M204 S500
G1 F1200
G1 X162.037 Y105.966 E.24013
M204 S1000
G1 X162.037 Y106.33 F10800
M204 S500
G1 F1200
G1 X169.963 Y114.256 E.24013
M204 S1000
G1 X169.963 Y114.256 F10800
G1 X169.963 Y114.621
M204 S500
G1 F1200
G1 X162.037 Y106.695 E.24013
M204 S1000
G1 X162.037 Y106.695 F10800
G1 X162.037 Y107.059
M204 S500
G1 F1200
G1 X169.963 Y114.985 E.24013
M204 S1000
G1 X169.963 Y114.985 F10800
G1 X169.963 Y115.35
M204 S500
G1 F1200
G1 X162.037 Y107.423 E.24014
M204 S1000
G1 X162.037 Y107.423 F10800
M73 P1 R269
M73 Q1 S270
G1 X162.037 Y107.788
M204 S500
G1 F1200
G1 X169.963 Y115.714 E.24013
M204 S1000
G1 X169.963 Y115.714 F10800
G1 X169.963 Y116.078
M204 S500
G1 F1200
G1 X162.037 Y108.152 E.24013
M204 S1000
G1 X162.037 Y108.516 F10800
M204 S500
G1 F1200
G1 X169.963 Y116.443 E.24014
M204 S1000
G1 X169.963 Y116.443 F10800
G1 X169.963 Y116.807
M204 S500
G1 F1200
G1 X162.037 Y108.881 E.24013
M204 S1000
G1 X162.037 Y108.881 F10800
G1 X162.037 Y109.245
M204 S500
G1 F1200
G1 X169.963 Y117.171 E.24013
M204 S1000
G1 X169.963 Y117.171 F10800
G1 X169.963 Y117.536
M204 S500
G1 F1200
G1 X162.037 Y109.609 E.24014
M204 S1000
G1 X162.037 Y109.609 F10800
G1 X162.037 Y109.974
M204 S500
G1 F1200
G1 X169.963 Y117.9 E.24013
M204 S1000
G1 X169.963 Y118.264 F10800
M204 S500
G1 F1200
G1 X162.037 Y110.338 E.24013
M204 S1000
G1 X162.037 Y110.338 F10800
G1 X162.037 Y110.703
M204 S500
G1 F1200
G1 X169.963 Y118.629 E.24013
M204 S1000
G1 X169.963 Y118.629 F10800
G1 X169.963 Y118.993
M204 S500
G1 F1200
G1 X162.037 Y111.067 E.24013
M204 S1000
G1 X162.037 Y111.067 F10800
G1 X162.037 Y111.431
M204 S500
G1 F1200
G1 X169.963 Y119.357 E.24013
M204 S1000
G1 X169.963 Y119.357 F10800
